!!!!SEGMENT: pl-cz--i-56_orllowski-michall--pastorella.krn
!!!cenid: 18xx:833
!!!COM: Gruberski, Eugenjusz
!!!COM-rismid: pe353782
!!!CDT: 1870-1923
!!!CNT: Polish
!!!OTL: Otośmy się dziś zebrali
!!!PDT: 1899
!!!AGN:
!!!SMS-siglum: PL-CZ
!!!SMS-shelfmark: III-941
!!!SMS-shelfwork: W
!!!SMS-variant:
!!!SMS-altvar:
!!!NIFC-rismid: 300000418
!!!URL-scan: http://repozytorium.nifc.pl/skany/pl-cz-nut--iii-941
!!!ONB-nifc:
!!!OMD: Moderato.
!!!key: A-
**kern	**text	**text	**dynam	**kern	**text	**text	**dynam	**kern	**text	**text
*	*color:gray	*color:gray	*	*	*color:gray	*color:gray	*	*	*color:gray	*color:gray
*group1	*	*	*	*group1	*	*	*	*group1	*	*
*part3	*part3	*part3	*part3	*part2	*part2	*part2	*part2	*part1	*part1	*part1
*staff3	*	*staff3	*	*staff2	*staff2	*	*	*staff1	*staff1	*staff1
*I"Bas I. Bas II.	*	*	*	*I"Tenor I. Tenor II.	*	*	*	*I"Solo Bas I.	*	*
*Ibass	*	*	*	*Itenor	*	*	*	*Ibass	*	*
*ICvox	*	*	*	*ICvox	*	*	*	*ICvox	*	*
*clefF4	*	*	*	*clefG2	*	*	*	*clefF4	*	*
*	*	*	*	*Trd0c0	*	*	*	*	*	*
*k[b-e-a-]	*	*	*	*k[b-e-a-]	*	*	*	*k[b-e-a-]	*	*
*E-:	*	*	*	*E-:	*	*	*	*E-:	*	*
*M4/4	*	*	*	*M4/4	*	*	*	*M4/4	*	*
=1	=1	=1	=1	=1	=1	=1	=1	=1	=1	=1
*^	*	*	*	*^	*	*	*	*	*	*
4.E-/	4.E-\	.	.	.	4.e-/	4.e-\	O-	.	.	1ryy	.	.
8F/	8F\	.	.	.	8f/	8f\	-toś-	.	.	.	.	.
8G/	8G\	.	.	.	8g/	8g\	-my	.	.	.	.	.
8F/	8F\	.	.	.	8f/	8f\	się	.	.	.	.	.
8E-/	8E-\	.	.	.	8e-/	8e-\	dziś	.	.	.	.	.
8G/	8G\	.	.	.	8g/	8g\	ze-	.	.	.	.	.
=2	=2	=2	=2	=2	=2	=2	=2	=2	=2	=2	=2	=2
2c/	2c\	.	.	.	2cc/	2cc\	-bra-	.	.	1ryy	.	.
2B-/	2B-\	.	.	.	2b-/	2b-\	-li,	.	.	.	.	.
=3	=3	=3	=3	=3	=3	=3	=3	=3	=3	=3	=3	=3
2.G/	4E-\	Do-	Do-	.	4b-/	2.b-\	Do-	.	.	1ryy	.	.
.	4E-\	.	-bry	.	8cc/L	.	-bry	.	.	.	.	.
.	.	.	.	.	8dd/J	.	.	.	.	.	.	.
.	4GG\	.	Oj-	.	4ee-/	.	Oj-	.	.	.	.	.
4F/	4GG\	-bry	-cze	.	4dd/	4bn\	-cze	.	.	.	.	.
=4	=4	=4	=4	=4	=4	=4	=4	=4	=4	=4	=4	=4
(<4E-/	1AA-	Oj-	nasz!	.	1cc	2cc\	nasz!	Oj-	.	1ryy	.	.
8F/L	.	.	.	.	.	.	.	.	.	.	.	.
8G/J)	.	.	.	.	.	.	.	.	.	.	.	.
4A-/	.	-cze	.	.	.	4cc\	.	-cze	.	.	.	.
4G/	.	nasz!	.	.	.	4b-\	.	nasz!	.	.	.	.
=5	=5	=5	=5	=5	=5	=5	=5	=5	=5	=5	=5	=5
4.F/	4.F\	.	.	.	4.cc/	4.a-\	byś-	.	.	1ryy	.	.
8c/	8A-\	.	.	.	8cc/	8a-\	-my	.	.	.	.	.
8B-/	8G\	.	.	.	8dd/	8b-\	u-	.	.	.	.	.
8B-/	8G\	.	.	.	8cc/	8b-\	-czuć	.	.	.	.	.
8B-/	8G\	.	.	.	8dd/	8b-\	żar	.	.	.	.	.
8B-/	8G\	.	.	.	8een/	8b-\	wy-	.	.	.	.	.
=6	=6	=6	=6	=6	=6	=6	=6	=6	=6	=6	=6	=6
2B-/	2F\	.	.	.	2gg/	2cc\	-la-	.	.	1ryy	.	.
2A-/	2F\	.	.	.	2ff/	2cc\	-li	.	.	.	.	.
=7	=7	=7	=7	=7	=7	=7	=7	=7	=7	=7	=7	=7
4A-/	4D\	.	.	.	4ff/	4b-\	w ten	.	.	1ryy	.	.
4G/	4E-\	.	.	.	4ee-/	4b-\	tak	.	.	.	.	.
!	!	!	!	!	!	!	!LO:SIC:v:l:s:t=pięk-	!	!	!	!	!
4F/	4F\	.	.	.	4dd/	4b-\	pię-	.	.	.	.	.
!	!	!	!	!	!	!	!LO:SIC:v:l:s:t=-ny	!	!	!	!	!
4F/	4E-\	.	.	.	4cc/	4an\	-kny	.	.	.	.	.
!!LO:LB:g=original
=8	=8	=8	=8	=8	=8	=8	=8	=8	=8	=8	=8	=8
4.F/	4.D\	pię-	pię-	.	1ff	1b-	czas!	.	.	1ryy	.	.
8G/	8E-\	-kny	-kny	.	.	.	.	.	.	.	.	.
2A-/	(<4F\	czas!	czas!	.	.	.	.	.	.	.	.	.
.	4BB-\)	.	.	.	.	.	.	.	.	.	.	.
=9	=9	=9	=9	=9	=9	=9	=9	=9	=9	=9	=9	=9
4.G/	4.E-\	.	.	.	4.ee-/	4.b-\	Pieśń	.	.	1ryy	.	.
8G/	8E-\	.	.	.	8ee-/	8b-\	Ci	.	.	.	.	.
4G/	4GG\	.	.	.	4ee-/	4b-\	nie-	.	.	.	.	.
4F/	4GG\	.	.	.	4dd/	4b-\	-siem	.	.	.	.	.
=10	=10	=10	=10	=10	=10	=10	=10	=10	=10	=10	=10	=10
4.E-/	4.AA-\	.	.	.	4.dd/	4.b-\	dzi-	.	.	1ryy	.	.
8E-/	8AA-\	.	.	.	8cc/	8a-\	-siaj	.	.	.	.	.
4E-/	4AA-\	.	.	.	4bn/	4a-\	w da-	.	.	.	.	.
4E-/	4AA-\	.	.	.	4cc/	4a-\	-rze,	.	.	.	.	.
=11	=11	=11	=11	=11	=11	=11	=11	=11	=11	=11	=11	=11
4.F/	4.AAn\	.	.	.	4.ff/	4.cc\	a	.	.	1ryy	.	.
8F/	8AA\	.	.	.	8ff/	8cc\	z nią	.	.	.	.	.
4F/	4FF\	.	.	.	4ff/	4dd\	mi-	.	.	.	.	.
4F/	4AA\	.	.	.	4ee-/	4cc\	-łość,	.	.	.	.	.
=12	=12	=12	=12	=12	=12	=12	=12	=12	=12	=12	=12	=12
1F	(<4BB-\	.	.	.	1dd	1b-	cześć,	.	.	1ryy	.	.
.	8D\L	.	.	.	.	.	.	.	.	.	.	.
.	8F\J)	.	.	.	.	.	.	.	.	.	.	.
!LO:TX:t=P:problem:uszkodzony papier	!	!	!	!	!	!	!	!	!	!	!	!
.	2ryy	.	.	.	.	.	.	.	.	.	.	.
=13	=13	=13	=13	=13	=13	=13	=13	=13	=13	=13	=13	=13
!	!	!	!	!	!LO:TX:a:t=acceler.	!	!	!	!	!	!	!
4.B-/	4.B-\	.	.	.	4.b-/	4.b-\	któ-	.	.	1ryy	.	.
8B-/	8B-\	.	.	.	8b-/	8b-\	-rą	.	.	.	.	.
!	!	!	!	!	!	!	!LO:SIC:v:l:s:t=wdzięcz-	!	!	!	!	!
4A-/	4A-\	.	.	.	4cc/	4cc\	wdzię-	.	.	.	.	.
!	!	!	!	!	!	!	!LO:SIC:v:l:s:t=-ność	!	!	!	!	!
4A-/	4F\	.	.	.	4dd/	4b-\	-czność	.	.	.	.	.
=14	=14	=14	=14	=14	=14	=14	=14	=14	=14	=14	=14	=14
4.G/	4.E-\	.	.	.	4.ee-/	4.b-\	na-	.	.	1ryy	.	.
8G/	8E-\	.	.	.	8b-/	8b-\	-sza	.	.	.	.	.
4G/	4C\	.	.	.	4ee-/	4cc\	ka-	.	.	.	.	.
4F/	4AA-\	.	.	.	4ff/	4cc\	-że	.	.	.	.	.
!!LO:LB:g=original
=15	=15	=15	=15	=15	=15	=15	=15	=15	=15	=15	=15	=15
!	!	!	!	!	!LO:TX:a:t=rit.	!	!	!	!	!	!	!
4E-/	4BB-\	.	.	.	4gg/	4b-\	przed	.	.	1ryy	.	.
4G/	4BB-\	.	.	.	4ee-/	4b-\	Twe	.	.	.	.	.
4A-/	4BB-\	.	.	.	4ff/	4dd\	sto-	.	.	.	.	.
4F/	4BB-\	.	.	.	4dd/	4b-\	-py	.	.	.	.	.
=16	=16	=16	=16	=16	=16	=16	=16	=16	=16	=16	=16	=16
1G	1E-;<	.	.	.	1ee-;>	1b-	nieść!	.	.	1ryy	.	.
*v	*v	*	*	*	*	*	*	*	*	*	*	*
*	*	*	*	*v	*v	*	*	*	*	*	*
=17||	=17||	=17||	=17||	=17||	=17||	=17||	=17||	=17||	=17||	=17||
*k[b-e-a-d-]	*	*	*	*k[b-e-a-d-]	*	*	*	*k[b-e-a-d-]	*	*
*A-:	*	*	*	*A-:	*	*	*	*A-:	*	*
*M3/4	*	*	*	*M3/4	*	*	*	*M3/4	*	*
*^	*	*	*	*^	*	*	*	*	*	*
!	!	!	!	!	!LO:TX:a:B:t=Andante.cantabile.	!	!	!	!LO:DY:a:rj	!	!	!
2E-/	2AA-\	.	.	.	2cc/	2a-\	Bądź	.	p	2.ryy	.	.
4E-/	4AA-\	.	.	.	4cc/	4a-\	szczę-	.	.	.	.	.
=18	=18	=18	=18	=18	=18	=18	=18	=18	=18	=18	=18	=18
2E-/	2E-\	.	.	.	2cc/	2g\	-sli-	.	.	2.ryy	.	.
4E-/	4D-\	.	.	.	4b-/	4g\	-wym,	.	.	.	.	.
=19	=19	=19	=19	=19	=19	=19	=19	=19	=19	=19	=19	=19
2E-/	2C\	.	.	.	2a-/	2a-\	za-	.	.	2.ryy	.	.
4E-/	4BB-\	.	.	.	4b-/	4g\	-wsze,	.	.	.	.	.
=20	=20	=20	=20	=20	=20	=20	=20	=20	=20	=20	=20	=20
2E-/	2AA-\	.	.	.	2dd-/	2b-\	wszę-	.	.	2.ryy	.	.
4E-/	4AA-\	.	.	.	4cc/	4a-\	-dzie,	.	.	.	.	.
=21	=21	=21	=21	=21	=21	=21	=21	=21	=21	=21	=21	=21
2A-/	2A-\	.	.	.	2ee-/	2cc\	A-	.	.	2.ryy	.	.
4A-/	4A-\	.	.	.	4cc/	4a-\	-nioł,	.	.	.	.	.
!!LO:LB:g=original
=22	=22	=22	=22	=22	=22	=22	=22	=22	=22	=22	=22	=22
(>4c/	2F\	.	.	.	(>4cc/	(<4an\	pa-	.	.	2.ryy	.	.
4B-/)	.	.	.	.	4dd-/)	4b-\)	.	.	.	.	.	.
4An/	4F\	.	.	.	4ee-/	4cc\	-tron	.	.	.	.	.
=23	=23	=23	=23	=23	=23	=23	=23	=23	=23	=23	=23	=23
(>2.B-/	2BB-\	.	pa-	.	[>2.dd-/	[<2.b-\	Twój	.	.	2.ryy	.	.
.	4C\	.	-tron	.	.	.	.	.	.	.	.	.
=24	=24	=24	=24	=24	=24	=24	=24	=24	=24	=24	=24	=24
2F/)	(<4D-\	.	Twój	.	2dd-/]	2b-\]	.	.	.	2.ryy	.	.
.	4C\	.	.	.	.	.	.	.	.	.	.	.
4r	4BB-\)	.	.	.	4r	4ryy	.	.	.	.	.	.
=25	=25	=25	=25	=25	=25	=25	=25	=25	=25	=25	=25	=25
2G/	2E-\	.	.	.	2dd-/	2b-\	wier-	.	.	2.ryy	.	.
4G/	4E-\	.	.	.	4dd-/	4b-\	-nym	.	.	.	.	.
=26	=26	=26	=26	=26	=26	=26	=26	=26	=26	=26	=26	=26
2A-/	2F\	.	.	.	2cc/	2a-\	stró-	.	.	2.ryy	.	.
4A-/	4F\	.	.	.	4cc/	4a-\	-żem	.	.	.	.	.
=27	=27	=27	=27	=27	=27	=27	=27	=27	=27	=27	=27	=27
!	!	!	!	!	!LO:TX:a:t=rit.	!	!	!	!	!	!	!
2F/	2D-\	.	.	.	2b-/	2a-\	Twym	.	.	2.ryy	.	.
4F/	4BB-\	.	.	.	4dd-/	4b-\	niech	.	.	.	.	.
=28	=28	=28	=28	=28	=28	=28	=28	=28	=28	=28	=28	=28
2B-/	2BB-\	.	.	.	2gg/	2dd-\	bę-	.	.	2.ryy	.	.
4A-/	4BB-\	.	.	.	4ff/	4dd-\	-dzie,	.	.	.	.	.
!!LO:LB:g=original
=29	=29	=29	=29	=29	=29	=29	=29	=29	=29	=29	=29	=29
2G/	2E-\	.	.	.	2ee-/	2dd-\	nie-	.	.	2.ryy	.	.
4G/	4E-\	.	.	.	4een/	4dd-\	-chaj	.	.	.	.	.
=30	=30	=30	=30	=30	=30	=30	=30	=30	=30	=30	=30	=30
2G/	2E-\	.	.	.	2ff/	2dd-\	po-	.	.	2.ryy	.	.
4G/	4E-\	.	.	.	4dd-/	4b-\	-ciech	.	.	.	.	.
=31	=31	=31	=31	=31	=31	=31	=31	=31	=31	=31	=31	=31
2G/	2E-\	.	po-	.	[>2.b-/	[<2.b-\	zwój	.	.	2.ryy	.	.
4G/	4E-\	.	-ciech	.	.	.	.	.	.	.	.	.
=32	=32	=32	=32	=32	=32	=32	=32	=32	=32	=32	=32	=32
(>4G/	(<4E-\	.	zwój	.	2b-/]	2b-\]	.	.	.	2.ryy	.	.
4A-/	4F\	.	.	.	.	.	.	.	.	.	.	.
4G/)	4E-\)	.	.	.	4r	4ryy	.	.	.	.	.	.
=33	=33	=33	=33	=33	=33	=33	=33	=33	=33	=33	=33	=33
2A-/	2A-\	.	.	.	2ee-/	2cc\	Z gó-	.	.	2.ryy	.	.
4A-/	4A-\	.	.	.	4ee-/	4cc\	-ry	.	.	.	.	.
=34	=34	=34	=34	=34	=34	=34	=34	=34	=34	=34	=34	=34
2A-/	2C\	.	.	.	2aa-/	2ee-\	na	.	.	2.ryy	.	.
4A-/	4C\	.	.	.	4gg/	4ee-\	Cię	.	.	.	.	.
=35	=35	=35	=35	=35	=35	=35	=35	=35	=35	=35	=35	=35
2A-/	2D-\	.	.	.	2gg/	2ee-\	za-	.	.	2.ryy	.	.
4A-/	4D-\	.	.	.	4ff/	4dd-\	-wsze	.	.	.	.	.
!!LO:LB:g=original
=36	=36	=36	=36	=36	=36	=36	=36	=36	=36	=36	=36	=36
2G/	2D-\	.	.	.	2een/	2dd-\	zsy-	.	.	2.ryy	.	.
4A-/	4D-\	.	.	.	4ff/	4dd-\	-ła	.	.	.	.	.
=37	=37	=37	=37	=37	=37	=37	=37	=37	=37	=37	=37	=37
2An/	2F\	.	.	.	2ff/	2cc\	w prze-	.	.	2.ryy	.	.
4A/	4F\	.	.	.	4cc/	4cc\	-ci-	.	.	.	.	.
=38	=38	=38	=38	=38	=38	=38	=38	=38	=38	=38	=38	=38
2F/	2F\	.	.	.	(>4cc/	(<4an\	-wno-	.	.	2.ryy	.	.
.	.	.	.	.	4dd-/)	4b-\)	.	.	.	.	.	.
4F/	4F\	.	.	.	4ee-/	4cc\	-ściach	.	.	.	.	.
=39	=39	=39	=39	=39	=39	=39	=39	=39	=39	=39	=39	=39
[>2.F/	2BB-\	.	w prze-	.	[>2.dd-/	[<2.b-\	złych	.	.	2.ryy	.	.
.	4C\	.	-ci-	.	.	.	.	.	.	.	.	.
=40	=40	=40	=40	=40	=40	=40	=40	=40	=40	=40	=40	=40
4F/]	(<4D-\	.	-wno-	.	4dd-/]	4b-\]	.	.	.	2.ryy	.	.
2r	4C\	.	.	.	2r	2ryy	.	.	.	.	.	.
.	4BB-\)	.	-ściach	.	.	.	.	.	.	.	.	.
=41	=41	=41	=41	=41	=41	=41	=41	=41	=41	=41	=41	=41
2E-/	2E-\	.	.	.	2b-/	2g\	by	.	.	2.ryy	.	.
4E-/	4E-\	.	.	.	4cc/	4a-\	Cię	.	.	.	.	.
=42	=42	=42	=42	=42	=42	=42	=42	=42	=42	=42	=42	=42
2E-/	2E-\	.	.	.	(>4dd-/	(<4b-\	Bo-	.	.	2.ryy	.	.
.	.	.	.	.	4cc/)	4a-\)	.	.	.	.	.	.
4E-/	4E-\	.	.	.	4b-/	4g\	-ża	.	.	.	.	.
!!LO:LB:g=original
=43	=43	=43	=43	=43	=43	=43	=43	=43	=43	=43	=43	=43
2E-/	2AA-\	.	.	.	2cc/	2a-\	dłoń	.	.	2.ryy	.	.
4E-/	4AA-\	.	.	.	4dd-/	4b-\	krze-	.	.	.	.	.
=44	=44	=44	=44	=44	=44	=44	=44	=44	=44	=44	=44	=44
2A-/	2A-\	.	.	.	2ee-/	2cc\	-pi-	.	.	2.ryy	.	.
4A-/	4D-\	.	.	.	4ff/	4dd-\	-ła	.	.	.	.	.
=45	=45	=45	=45	=45	=45	=45	=45	=45	=45	=45	=45	=45
!	!	!	!	!	!LO:TX:a:t=rit.	!	!	!	!	!	!	!
(4A-/	2E-\	.	.	<	2ee-/	2cc\	pro-	.	.	2.ryy	.	.
4c/)	.	.	.	.	.	.	.	.	.	.	.	.
4A-/	4E-\	.	.	.	4ee-/	4cc\	-sim	.	.	.	.	.
=46	=46	=46	=46	=46	=46	=46	=46	=46	=46	=46	=46	=46
!	!	!	!	!	!	!	!	!	!LO:DY:a:t=sforz.:rj	!	!	!
(<4B-/	2E-\	.	.	.	2ff/	2dd-\	w mo-	.	sf	2.ryy	.	.
4e-/)	.	.	.	[[	.	.	.	.	.	.	.	.
4d-/	4E-\	.	.	.	4gg/	4ee-\	-dłach	.	.	.	.	.
=47	=47	=47	=47	=47	=47	=47	=47	=47	=47	=47	=47	=47
!	!	!	!	!	!	!	!	!	!LO:HP:b	!	!	!
[>2.c/	[<2.A-\	.	.	>	[>2.aa-/	[<2.ee-\	swych	.	.	2.ryy	.	.
=48	=48	=48	=48	=48	=48	=48	=48	=48	=48	=48	=48	=48
2.c/]	2.A-;<\]	.	.	]	2.aa-;>/]	2.ee-\]	.	.	.	2.ryy	.	.
*v	*v	*	*	*	*	*	*	*	*	*	*	*
*	*	*	*	*v	*v	*	*	*	*	*	*
=49	=49	=49	=49	=49	=49	=49	=49	=49	=49	=49
!	!	!	!	!LO:TX:b:B:t=Solo Bas I.	!	!	!	!	!	!
2.ryy	.	.	.	2.ryy	.	.	.	2.ryy	.	.
!!LO:LB:g=original
=50||	=50||	=50||	=50||	=50||	=50||	=50||	=50||	=50||	=50||	=50||
*k[b-e-a-d-g-]	*	*	*	*k[b-e-a-d-g-]	*	*	*	*k[b-e-a-d-g-]	*	*
*D-:	*	*	*	*D-:	*	*	*	*D-:	*	*
*M4/4	*	*	*	*M4/4	*	*	*	*M4/4	*	*
*met(c)	*	*	*	*met(c)	*	*	*	*met(c)	*	*
*^	*	*	*	*^	*	*	*	*	*	*
!	!	!	!	!	!	!	!	!	!LO:DY:b:rj:t=pp.	!	!	!
4r	4D-\	.	.	.	4r	4ryy	.	.	pp	1ryy	.	.
8F/	4r	.	.	.	8dd-/	8a-\	la,	.	.	.	.	.
8F/	.	.	.	.	8dd-/	8a-\	la,	.	.	.	.	.
4F/	2r	.	.	.	4dd-/	4a-\	la,	.	.	.	.	.
4F/	.	.	.	.	4dd-/	4a-\	la,	.	.	.	.	.
=51	=51	=51	=51	=51	=51	=51	=51	=51	=51	=51	=51	=51
4r	4D-\	.	.	.	4r	4ryy	.	.	.	1ryy	.	.
8F/	4r	.	.	.	8dd-/	8a-\	la,	.	.	.	.	.
8F/	.	.	.	.	8dd-/	8a-\	la,	.	.	.	.	.
4F/	2r	.	.	.	4dd-/	4a-\	la,	.	.	.	.	.
4F/	.	.	.	.	4dd-/	4a-\	la	.	.	.	.	.
!!LO:PB:g=original
=52!|:	=52!|:	=52!|:	=52!|:	=52!|:	=52!|:	=52!|:	=52!|:	=52!|:	=52!|:	=52!|:	=52!|:	=52!|:
!	!	!	!	!	!	!	!	!	!	!LO:TX:a:B:t=Moderato.	!	!
!	!	!	!	!	!	!	!	!	!LO:DY:b:rj	!LO:TX:t=P:problem:początek systemu basu solo	!	!
4r	4D-\	.	la,	.	4r	4ryy	.	.	pp	4A-/	Nad	Wsród
4F/	4r	.	.	.	4dd-/	4a-\	la,	.	.	4F/	Ko-	sie-
4r	4GG-\	.	la,	.	4r	4ryy	.	.	.	(<8G-/L	-ścio-	-ro-
.	.	.	.	.	.	.	.	.	.	8A-/J)	.	.
4G-/	4r	.	.	.	4ee-/	4b-\	la,	.	.	(<8B-/L	-łem,	-ctwa
.	.	.	.	.	.	.	.	.	.	8G-/J)	.	.
=53	=53	=53	=53	=53	=53	=53	=53	=53	=53	=53	=53	=53
4r	4AA-\	.	la,	.	4r	4ryy	.	.	.	4E-/	gdy	my
4G-/	4r	.	.	.	4cc/	4a-\	la,	.	.	4A-/	dziś	do
4r	4D-\	.	la	.	4r	4ryy	.	.	.	4F/	bu-	Cie-
4F/	4r	.	.	.	4dd-/	4a-\	la	.	.	4D-/	-rza	-bie
=54	=54	=54	=54	=54	=54	=54	=54	=54	=54	=54	=54	=54
4r	4BB-\	.	la,	.	4r	4ryy	.	.	.	4.F/	szu-	spie-
4F/	4r	.	.	.	4dd-/	4b-\	la,	.	.	.	.	.
.	.	.	.	.	.	.	.	.	.	8F/	-mi	-szym
4r	4GG-\	.	la,	.	4r	4ryy	.	.	.	(<8E-/L	jak	w każ-
.	.	.	.	.	.	.	.	.	.	8F/J)	.	.
4E-/	4r	.	.	.	4ee-/	4b-\	la,	.	.	(<8G-/L	wśród	-dy
.	.	.	.	.	.	.	.	.	.	8E-/J)	.	.
=55	=55	=55	=55	=55	=55	=55	=55	=55	=55	=55	=55	=55
4r	2FF\	.	la,	.	4r	4ryy	.	.	.	2.C;>/	skał	czas
8An/	.	.	.	.	8ff/	8cc\	la,	.	.	.	.	.
8B-/	.	.	.	.	8ff/	8dd-\	la,	.	.	.	.	.
!	!	!	!	!	!	!	!	!	!LO:DY:b	!	!	!
2c/	2F;<\	.	la	.	2ff;>/	2ee-\	la	.	pp	.	.	.
.	.	.	.	.	.	.	.	.	.	4r	.	.
=56	=56	=56	=56	=56	=56	=56	=56	=56	=56	=56	=56	=56
4r	4BB-\	.	la,	.	4r	4ryy	.	.	.	4F/	Cie-	Bóg
4F/	4r	.	.	.	4dd-/	4b-\	la,	.	.	4B-/	-bie	Ci
4r	4D-\	.	la,	.	4r	4ryy	.	.	.	4An/	Bóg	to
4F/	4r	.	.	.	4dd-/	4b-\	la,	.	.	4B-/	nam	na-
=57	=57	=57	=57	=57	=57	=57	=57	=57	=57	=57	=57	=57
4r	4GG-\	.	la,	.	4r	4ryy	.	.	.	4d-/	i	-gro-
4G-/	4r	.	.	.	4ee-/	4b-\	la,	.	.	4c/	za	-dzi
4G-/	2r	.	.	.	4ee-/	4b-\	la,	.	.	4B-/	stró-	w nie-
4G-/	.	.	.	.	4ee-/	4b-\	la	.	.	4G-/	-ża	-bie,
=58	=58	=58	=58	=58	=58	=58	=58	=58	=58	=58	=58	=58
4r	4AA-\	.	la	.	4r	4ryy	.	.	.	4A-/	i	że
4G-/	4r	.	.	.	4cc/	4a-\	la,	.	.	4E-/	za	tu
4r	4C\	.	la,	.	4r	4ryy	.	.	.	(<8A-/L	Oj-	ko-
.	.	.	.	.	.	.	.	.	.	8G-/J)	.	.
4G-/	4r	.	.	.	4cc/	4a-\	la,	.	.	(<8F/L	-ca	-chasz
.	.	.	.	.	.	.	.	.	.	8E-/J)	.	.
=59	=59	=59	=59	=59	=59	=59	=59	=59	=59	=59	=59	=59
4r	2.D-\	.	la,	.	4r	4ryy	.	.	.	2.F/	dał,	nas.
8F/	.	.	.	.	8dd-/	8a-\	la,	.	.	.	.	.
8F/	.	.	.	.	8dd-/	8a-\	la,	.	.	.	.	.
4F/	.	.	.	.	4dd-/	4a-\	la,	.	.	.	.	.
4F/	4r	.	.	.	4dd-/	4a-\	la	.	.	4r	.	.
=60	=60	=60	=60	=60	=60	=60	=60	=60	=60	=60	=60	=60
!	!	!	!	!	!	!	!	!	!	!LO:TX:t=P:problem:uszkodzony papier	!	!
4r	4D-\	.	la	.	4r	4ryy	.	.	.	4A-/yy	Cie-	Bóg
4F/	4r	.	.	.	4dd-/	4a-\	la,	.	.	4A-/yy	-bie	Ci
4r	4D-\	.	la,	.	4r	4ryy	.	.	.	(<8c/L	Bóg	to
.	.	.	.	.	.	.	.	.	.	8d-/J)	.	.
4F/	4r	.	.	.	4dd-/	4a-\	la,	.	.	(<8e-/L	nam	na-
.	.	.	.	.	.	.	.	.	.	8d-/J)	.	.
=61	=61	=61	=61	=61	=61	=61	=61	=61	=61	=61	=61	=61
4r	4GG-\	.	la,	.	4r	4ryy	.	.	.	4f;>/	i	-gro-
8G-/	4r	.	.	.	8ee-/	8b-\	la,	.	.	4e-/	za	-dzi
8G-/	.	.	.	.	8ee-/	8b-\	la,	.	.	.	.	.
4G-/	2r	.	.	.	4ee-/	4b-\	la,	.	.	4d-/	stró-	w nie-
4G-/	.	.	.	.	4ee-/	4b-\	la	.	.	4B-/	-ża	-bie,
=62	=62	=62	=62	=62	=62	=62	=62	=62	=62	=62	=62	=62
4r	4AA-\	.	la	.	4r	4ryy	.	.	.	4A-/	i	że
4F/	4r	.	.	.	4dd-/	4a-\	la,	.	.	4F/	za	tu
4r	4AA-\	.	la,	.	4r	4ryy	.	.	.	(<8A-/L	Oj-	ko-
.	.	.	.	.	.	.	.	.	.	8G-/J)	.	.
4G-/	4r	.	.	.	4cc/	4a-\	la,	.	.	(<8E-/L	-ca	-chasz
.	.	.	.	.	.	.	.	.	.	8F/J)	.	.
=63	=63	=63	=63	=63	=63	=63	=63	=63	=63	=63	=63	=63
!	!	!	!	!	!	!	!	!	!	!LO:TX:t=P:problem:koniec systemu basu solo	!	!
4r	1D-	.	la,	.	4r	4ryy	.	.	.	1D-;>	dał	nas.
8F/	.	.	.	.	8dd-/	8a-\	la,	.	.	.	.	.
8F/	.	.	.	.	8dd-/	8a-\	la,	.	.	.	.	.
2F/	.	.	.	.	2dd-/	2a-\	la	.	.	.	.	.
*v	*v	*	*	*	*	*	*	*	*	*	*	*
*	*	*	*	*v	*v	*	*	*	*	*	*
=64:|!	=64:|!	=64:|!	=64:|!	=64:|!	=64:|!	=64:|!	=64:|!	=64:|!	=64:|!	=64:|!
*k[b-e-a-d-]	*	*	*	*k[b-e-a-d-]	*	*	*	*k[b-e-a-d-]	*	*
*A-:	*	*	*	*A-:	*	*	*	*A-:	*	*
*^	*	*	*	*^	*	*	*	*	*	*
!	!	!	!	!	!LO:TX:a:t=A tempo.	!	!	!	!	!	!	!
8C/	8C\	.	.	.	8c/	8c\	Ży-	.	.	1ryy	.	.
8C/	8C\	.	.	.	8c/	8c\	-czym	.	.	.	.	.
8C/	8C\	.	.	.	8en/	8en\	więc	.	.	.	.	.
8C/	8C\	.	.	.	8e/	8e\	by	.	.	.	.	.
!LO:SIC:v:s:t=8En	!	!	!	!	!	!	!	!	!	!	!	!
8E-/	8C\	.	.	.	8g/	8e\	Bóg	.	.	.	.	.
!LO:SIC:v:s:t=8En	!	!	!	!	!	!	!	!	!	!	!	!
8E-/	8C\	.	.	.	8g/	8e\	łas-	.	.	.	.	.
!LO:SIC:v:s:t=8En	!	!	!	!	!	!	!	!	!	!	!	!
8E-/	8C\	.	.	.	8b-/	8g\	-ka-	.	.	.	.	.
!LO:SIC:v:s:t=8En	!	!	!	!	!	!	!	!	!	!	!	!
8E-/	8C\	.	.	.	8b-/	8g\	-wy	.	.	.	.	.
=65	=65	=65	=65	=65	=65	=65	=65	=65	=65	=65	=65	=65
8.C/	8.FF\	dłu-	.	.	8.a-/	8.f\	dłu-	.	.	1ryy	.	.
16C/	16FF\	-gi	.	.	16g/	16en\	-gi	.	.	.	.	.
8C/	8FF\	sze-	.	.	8a-/	8f\	sz-	.	.	.	.	.
8C/	8FF\	-reg	.	.	8b-/	8g\	-reg	.	.	.	.	.
!LO:N:vis=4.	!	!	!	!	!	!	!	!	!	!	!	!
8.C/	2FF\	sze-	.	.	2cc/	2a-\	lat	.	.	.	.	.
16BBn/	.	-reg	.	.	.	.	.	.	.	.	.	.
8C/L	.	lat	.	.	.	.	.	.	.	.	.	.
8F/J	.	.	.	.	.	.	.	.	.	.	.	.
=66	=66	=66	=66	=66	=66	=66	=66	=66	=66	=66	=66	=66
8E-/	8E-\	.	.	.	8e-/	8e-\	Ci	.	.	1ryy	.	.
8E-/	8E-\	.	.	.	8e-/	8e-\	u-	.	.	.	.	.
8E-/	8E-\	.	.	.	8g/	8g\	-ży-	.	.	.	.	.
8E-/	8E-\	.	.	.	8g/	8g\	-czył	.	.	.	.	.
8G/	8E-\	.	.	.	8b-/	8g\	a	.	.	.	.	.
8G/	8E-\	.	.	.	8b-/	8g\	gdy	.	.	.	.	.
8G/	8E-\	.	.	.	8dd-/	8b-\	łza-	.	.	.	.	.
8G/	8E-\	.	.	.	8dd-/	8b-\	-wy	.	.	.	.	.
=67	=67	=67	=67	=67	=67	=67	=67	=67	=67	=67	=67	=67
8.E-/	8.AA-\	.	.	.	8.cc/	8.a-\	ten	.	.	1ryy	.	.
16E-/	16AA-\	.	.	.	16b-/	16g\	o-	.	.	.	.	.
8E-/	8AA-\	.	.	.	8cc/	8a-\	-pu-	.	.	.	.	.
8E-/	8AA-\	.	.	.	8dd-/	8b-\	-ścisz	.	.	.	.	.
(>4E-/	4.AA-\	.	.	.	2ee-/	2cc\	świat,	.	.	.	.	.
8F/)	.	.	.	.	.	.	.	.	.	.	.	.
8G/	8AA-\	.	Roz-	.	.	.	.	.	.	.	.	.
*	*	*	*	*	*v	*v	*	*	*	*	*	*
=68	=68	=68	=68	=68	=68	=68	=68	=68	=68	=68	=68
!LO:TX:a:B:t=marcato.	!	!	!	!LO:DY:b:rj:t=f.	!	!	!	!	!	!	!
4A-/	4A-\	.	-two-	f	1r	.	.	.	1ryy	.	.
8G/	8G\	.	-rzył	.	.	.	.	.	.	.	.
8G/	8G\	.	Ci	.	.	.	.	.	.	.	.
8F/	8F\	.	raj-	.	.	.	.	.	.	.	.
8F/	8F\	.	-skie	.	.	.	.	.	.	.	.
8E-/	8E-\	.	wro-	.	.	.	.	.	.	.	.
8E-/	8E-\	.	-ta	.	.	.	.	.	.	.	.
=69	=69	=69	=69	=69	=69	=69	=69	=69	=69	=69	=69
*	*	*	*	*	*^	*	*	*	*	*	*
!	!	!	!	!	!	!	!	!	!LO:HP:b	!	!	!
!	!	!	!	!	!	!	!	!	!LO:DY:b:rj:t=p.	!	!	!
8E-/	8E-\	.	i	.	8dd-/	8b-\	.	.	p	1ryy	.	.
8E-/	8E-\	.	przez	.	8dd-/	8b-\	.	.	.	.	.	.
8E-/	8E-\	.	bra-	.	8b-/	8g\	.	.	.	.	.	.
8E-/	8E-\	.	-mę	.	8b-/	8g\	.	.	.	.	.	.
4.E-/	4.AA-;<\	.	róż	.	(>8cc/L	(<8a-\L	.	.	.	.	.	.
.	.	.	.	.	8dd-/J	8b-\J	.	.	.	.	.	.
.	.	.	.	.	4ee-;/)	4cc\)	.	.	.	.	.	.
8E-/	8E-\	.	wpro-	.	.	.	.	.	.	.	.	.
*	*	*	*	*	*v	*v	*	*	*	*	*	*
!!LO:LB:g=original
=70	=70	=70	=70	=70	=70	=70	=70	=70	=70	=70	=70
!	!	!	!	!LO:DY:b	!	!	!	!	!	!	!
4A-/	4A-\	.	-wa-	ff	1r	.	.	.	1ryy	.	.
8G/	8G\	.	-dził	.	.	.	.	.	.	.	.
8G/	8G\	.	Cię	.	.	.	.	.	.	.	.
8F/	8F\	.	do	.	.	.	.	.	.	.	.
8F/	8F\	.	ży-	.	.	.	.	.	.	.	.
8E-/	8E-\	.	-wo-	.	.	.	.	.	.	.	.
8C/	8C\	.	-ta	.	.	.	.	.	.	.	.
=71	=71	=71	=71	=71	=71	=71	=71	=71	=71	=71	=71
*	*	*	*	*	*^	*	*	*	*	*	*
!	!	!	!	!	!	!	!	!	!LO:DY:b:rj:t=p.	!	!	!
!	!	!	!	!	!	!	!	!	!LO:HP:b	!	!	!
8A-/	8E-\	.	.	.	8ee-/	8cc\	świę-	.	p<	1ryy	.	.
8A-/	8E-\	.	.	.	8ee-/	8cc\	-ty	.	.	.	.	.
8B-/	8E-\	.	.	.	8ff/	8dd-\	A-	.	.	.	.	.
8d-/	8E-\	.	.	.	8gg/	8ee-\	-nioł	.	.	.	.	.
2c/	2A-;<\	.	.	.	2aa-;>/	2ee-\	Stróż	.	[[	.	.	.
*v	*v	*	*	*	*	*	*	*	*	*	*	*
*	*	*	*	*v	*v	*	*	*	*	*	*
=72||	=72||	=72||	=72||	=72||	=72||	=72||	=72||	=72||	=72||	=72||
*k[b-e-a-]	*	*	*	*k[b-e-a-]	*	*	*	*k[b-e-a-]	*	*
*E-:	*	*	*	*E-:	*	*	*	*E-:	*	*
*^	*	*	*	*^	*	*	*	*	*	*
!	!	!	!	!	!LO:TX:a:B:t=Tempo I.	!	!	!	!	!	!	!
4.E-/	4.E-\	.	.	.	4.e-/	4.e-\	O-	.	.	1ryy	.	.
8F/	8F\	.	.	.	8f/	8f\	-toś-	.	.	.	.	.
8G/	8G\	.	.	.	8g/	8g\	-my	.	.	.	.	.
8F/	8F\	.	.	.	8f/	8f\	się	.	.	.	.	.
8E-/	8E-\	.	.	.	8e-/	8e-\	dziś	.	.	.	.	.
8G/	8G\	.	.	.	8g/	8g\	ze-	.	.	.	.	.
=73	=73	=73	=73	=73	=73	=73	=73	=73	=73	=73	=73	=73
2c/	2c\	.	.	.	2cc/	2cc\	-bra-	.	.	1ryy	.	.
2B-/	2B-\	.	.	.	2b-/	2b-\	-li	.	.	.	.	.
=74	=74	=74	=74	=74	=74	=74	=74	=74	=74	=74	=74	=74
2.G/	4E-\	do-	do-	.	4b-/	2.b-\	do-	do-	.	1ryy	.	.
.	4E-\	.	-bry	.	(>8cc/L	.	-bry	.	.	.	.	.
.	.	.	.	.	8dd/J)	.	.	.	.	.	.	.
.	4GG\	.	Oj-	.	4ee-/	.	Oj-	.	.	.	.	.
4F/	4GG\	-bry	-cze	.	4dd/	4bn\	-cze	-bry	.	.	.	.
=75	=75	=75	=75	=75	=75	=75	=75	=75	=75	=75	=75	=75
(<4E-/	1AA-	Oj-	nasz!	.	1cc	2cc\	nasz!	Oj-	.	1ryy	.	.
8F/L	.	.	.	.	.	.	.	.	.	.	.	.
8G/J)	.	.	.	.	.	.	.	.	.	.	.	.
4A-/	.	-cze	.	.	.	4cc\	.	-cze	.	.	.	.
4G/	.	nasz!	.	.	.	4b-\	.	nasz!	.	.	.	.
!!LO:LB:g=original
=76	=76	=76	=76	=76	=76	=76	=76	=76	=76	=76	=76	=76
4.F/	4.F\	.	.	.	4.cc/	4.a-\	byś-	.	.	1ryy	.	.
8c/	8A-\	.	.	.	8cc/	8a-\	-my	.	.	.	.	.
8B-/	8G\	.	.	.	8dd/	8b-\	u-	.	.	.	.	.
8B-/	8G\	.	.	.	8cc/	8b-\	-czuć	.	.	.	.	.
8B-/	8G\	.	.	.	8dd/	8b-\	żar	.	.	.	.	.
8B-/	8G\	.	.	.	8een/	8b-\	wy-	.	.	.	.	.
=77	=77	=77	=77	=77	=77	=77	=77	=77	=77	=77	=77	=77
2B-/	2F\	.	.	.	2gg/	2cc\	-la-	.	.	1ryy	.	.
2A-/	2F\	.	.	.	2ff/	2cc\	-li	.	.	.	.	.
=78	=78	=78	=78	=78	=78	=78	=78	=78	=78	=78	=78	=78
4A-/	4D\	.	.	.	4ff/	4b-\	w ten	.	.	1ryy	.	.
4G/	4E-\	.	.	.	4ee-/	4b-\	tak	.	.	.	.	.
!	!	!	!	!	!	!LO:SIC:v:l:s:t=pięk-	!	!	!	!	!	!
4F/	4F\	.	.	.	4dd/	4b-\	pię-	.	.	.	.	.
!	!	!	!	!	!	!LO:SIC:v:l:s:t=-ny	!	!	!	!	!	!
4F/	4E-\	.	.	.	4cc/	4an\	-kny	.	.	.	.	.
=79	=79	=79	=79	=79	=79	=79	=79	=79	=79	=79	=79	=79
!	!LO:SIC:v:l:s:t=pięk-	!	!	!	!	!	!	!	!	!	!	!
4.F/	4.D\	.	pię-	.	1ff	1b-	czas.	.	.	1ryy	.	.
!	!LO:SIC:v:l:s:t=-ny	!	!	!	!	!	!	!	!	!	!	!
8G/	8E-\	.	-kny	.	.	.	.	.	.	.	.	.
2A-/	(<4F\	.	czas	.	.	.	.	.	.	.	.	.
.	4BB-\)	.	.	.	.	.	.	.	.	.	.	.
=80	=80	=80	=80	=80	=80	=80	=80	=80	=80	=80	=80	=80
4.G/	4.E-\	.	.	.	4.ee-/	4.b-\	Pieśń	.	.	1ryy	.	.
8G/	8E-\	.	.	.	8ee-/	8b-\	Ci	.	.	.	.	.
4G/	4GG\	.	.	.	4ee-/	4b-\	nie-	.	.	.	.	.
4F/	4GG\	.	.	.	4dd/	4b-\	-siem	.	.	.	.	.
=81	=81	=81	=81	=81	=81	=81	=81	=81	=81	=81	=81	=81
4.E-/	4.AA-\	.	.	.	4.dd/	4.b-\	dzi-	.	.	1ryy	.	.
8E-/	8AA-\	.	.	.	8cc/	8a-\	-siaj	.	.	.	.	.
4E-/	4AA-\	.	.	.	4bn/	4a-\	w da-	.	.	.	.	.
4E-/	4AA-\	.	.	.	4cc/	4a-\	-rze.	.	.	.	.	.
!!LO:LB:g=original
=82	=82	=82	=82	=82	=82	=82	=82	=82	=82	=82	=82	=82
4.F/	4.AAn\	.	.	.	4.ff/	4.cc\	a	.	.	1ryy	.	.
8F/	8AA\	.	.	.	8ff/	8cc\	z nią	.	.	.	.	.
4F/	4FF\	.	.	.	4ff/	4dd\	mi-	.	.	.	.	.
4F/	4AA\	.	.	.	4ee-/	4cc\	-łość,	.	.	.	.	.
=83	=83	=83	=83	=83	=83	=83	=83	=83	=83	=83	=83	=83
1F	4BB-\	.	.	.	1dd	1b-	cześć,	.	.	1ryy	.	.
.	8D\L	.	.	.	.	.	.	.	.	.	.	.
.	8F\J	.	.	.	.	.	.	.	.	.	.	.
.	2B-	.	.	.	.	.	.	.	.	.	.	.
=84	=84	=84	=84	=84	=84	=84	=84	=84	=84	=84	=84	=84
4.B-/	4.B-\	.	.	.	4.b-/	4.b-\	któ-	.	.	1ryy	.	.
8B-/	8B-\	.	.	.	8b-/	8b-\	-rą	.	.	.	.	.
4A-/	4A-\	.	.	.	4cc/	4cc\	wdzięcz-	.	.	.	.	.
4A-/	4F\	.	.	.	4dd/	4b-\	-ność	.	.	.	.	.
=85	=85	=85	=85	=85	=85	=85	=85	=85	=85	=85	=85	=85
4.G/	4.E-\	.	.	.	4.ee-/	4.b-\	na-	.	.	1ryy	.	.
8G/	8E-\	.	.	.	8b-/	8b-\	-sza	.	.	.	.	.
4G/	4C\	.	.	.	4ee-/	4cc\	ka-	.	.	.	.	.
4F/	4AA-\	.	.	.	4ff/	4cc\	-że	.	.	.	.	.
=86	=86	=86	=86	=86	=86	=86	=86	=86	=86	=86	=86	=86
!	!	!	!	!	!LO:TX:a:t=rit.:rj	!	!	!	!	!	!	!
4E-/	4BB-\	.	.	.	4gg/	4b-\	przed	.	.	1ryy	.	.
4G/	4BB-\	.	.	.	4ee-/	4b-\	Twe	.	.	.	.	.
4A-/	4BB-\	.	.	.	4ff/	4dd\	sto-	.	.	.	.	.
4F/	4BB-\	.	.	.	4dd/	4b-\	-py	.	.	.	.	.
=87	=87	=87	=87	=87	=87	=87	=87	=87	=87	=87	=87	=87
1G	1E-;<	.	.	.	1ee-;>	1b-	nieść.	.	.	1ryy	.	.
!!LO:LB:g=original
=88	=88	=88	=88	=88	=88	=88	=88	=88	=88	=88	=88	=88
!	!	!	!	!	!LO:TX:a:B:t=Coda.	!	!	!	!	!	!	!
4.B-/	4.B-\	.	.	.	4.b-/	4.b-\	Któ-	.	.	1ryy	.	.
8B-/	8B-\	.	.	.	8b-/	8b-\	-rą	.	.	.	.	.
4A-/	4A-\	.	.	.	4cc/	4cc\	wdzięcz-	.	.	.	.	.
4A-/	4F\	.	.	.	4dd/	4b-\	-ność	.	.	.	.	.
=89	=89	=89	=89	=89	=89	=89	=89	=89	=89	=89	=89	=89
4.G/	4.E-\	.	.	.	4.ee-/	4.b-\	na-	.	.	1ryy	.	.
8B-/	8G\	.	.	.	8b-/	8b-\	-sza	.	.	.	.	.
4B-/	4G\	.	.	.	4ee-/	4b-\	ka-	.	.	.	.	.
!	!	!	!	!	!LO:TX:a:t=lento.	!	!	!	!	!	!	!
4B-/	4E-\	.	.	.	4gg/	4ee-\	-że	.	.	.	.	.
=90	=90	=90	=90	=90	=90	=90	=90	=90	=90	=90	=90	=90
4G/	4BB-\	.	.	.	4bb-/	4b-\ 4ee-	przed	.	.	1ryy	.	.
4B-/	4BB-\	.	.	.	4gg/	4ee-\	Twe	.	.	.	.	.
4A-/	4BB-\	.	.	.	4ff/	4dd\	sto-	.	.	.	.	.
4A-/	4BB-\	.	.	.	4dd/	4b-\	-py	.	.	.	.	.
=91	=91	=91	=91	=91	=91	=91	=91	=91	=91	=91	=91	=91
1G	1E-;<	.	.	.	1ee-;>	1b-	nieść!	.	.	1ryy	.	.
*v	*v	*	*	*	*	*	*	*	*	*	*	*
*	*	*	*	*v	*v	*	*	*	*	*	*
==	==	==	==	==	==	==	==	==	==	==
*-	*-	*-	*-	*-	*-	*-	*-	*-	*-	*-
!!!system-decoration: [{g1}]
!!!RDF**kern: > = above
!!!RDF**kern: < = below
!!!AIN: 2 bass 1 tenor
!!!ENC: Andrzej Borzym
!!!END: 2020-08-10
!!!EED: Jędrzej Mróz
!!!EST: 2021-12-28
